icons/svg/blogger.svg

﻿<?xml version="1.0" encoding="utf-8"?>
<!DOCTYPE svg PUBLIC "-//W3C//DTD SVG 1.1//EN" "http://www.w3.org/Graphics/SVG/1.1/DTD/svg11.dtd">
<svg xmlns="http://www.w3.org/2000/svg" xmlns:xlink="http://www.w3.org/1999/xlink" version="1.1" baseProfile="full" width="24" height="24" viewBox="0 0 24.00 24.00" enable-background="new 0 0 24.00 24.00" xml:space="preserve">
	<path fill="#000000" fill-opacity="1" stroke-width="0.2" stroke-linejoin="round" d="M 13.9994,12.9981L 9.94944,12.9981C 9.3964,12.9981 8.94944,13.4451 8.94944,13.9981C 8.94944,14.5511 9.3964,14.9981 9.94944,14.9981L 13.9994,14.9981C 14.5524,14.9981 14.9994,14.5511 14.9994,13.9981C 14.9994,13.4451 14.5524,12.9981 13.9994,12.9981 Z M 9.94944,9.99807L 12.5494,9.99807C 13.1014,9.99807 13.5494,9.55107 13.5494,8.99807C 13.5494,8.44507 13.1014,7.99807 12.5494,7.99807L 9.94944,7.99807C 9.3964,7.99807 8.94944,8.44507 8.94944,8.99807C 8.94944,9.55107 9.3964,9.99807 9.94944,9.99807 Z M 15.9994,8.99807L 15.9994,9.99807C 15.9994,10.5511 16.4465,10.9981 16.9994,10.9981C 17.5524,10.9981 17.9994,11.4451 17.9994,11.9981L 17.9994,14.9981C 17.9994,16.6541 16.6564,17.9981 14.9994,17.9981L 8.99943,17.9981C 7.34242,17.9981 5.99943,16.6541 5.99943,14.9981L 5.99943,7.99807C 5.99943,6.34207 7.34242,4.99807 8.99943,4.99807L 12.9994,4.99807C 14.6564,4.99807 15.9994,6.34207 15.9994,7.99807M 19.9994,1.99807L 3.99943,1.99807C 2.89442,1.99807 2.00944,2.89306 2.00944,3.99807L 1.99943,19.9981C 1.99943,21.1016 2.89442,21.9981 3.99943,21.9981L 19.9994,21.9981C 21.1034,21.9981 21.9994,21.1016 21.9994,19.9981L 21.9994,3.99807C 21.9994,2.89306 21.1034,1.99807 19.9994,1.99807 Z "/>
</svg>

<svg xmlns="http://www.w3.org/2000/svg" version="1.1" baseProfile="full" width="24" height="24" viewBox="0 0 24.00 24.00" xml:space="preserve"><path fill="#000" fill-opacity="1" stroke-width=".2" stroke-linejoin="round" d="M14 12.998H9.95c-.554 0-1 .447-1 1 0 .553.446 1 1 1H14c.552 0 1-.447 1-1 0-.553-.448-1-1-1zm-4.05-3h2.6c.55 0 1-.447 1-1 0-.553-.45-1-1-1h-2.6c-.554 0-1 .447-1 1 0 .553.446 1 1 1zm6.05-1v1c0 .553.447 1 1 1 .552 0 1 .447 1 1v3c0 1.656-1.344 3-3 3H9c-1.658 0-3-1.344-3-3v-7c0-1.656 1.342-3 3-3h4c1.656 0 3 1.344 3 3m4-6H4c-1.106 0-1.99.895-1.99 2l-.01 16c0 1.104.894 2 2 2h16c1.103 0 2-.896 2-2v-16c0-1.105-.897-2-2-2z"/></svg>
